Adwaita++-Dark/actions/22/bank.svg

<svg height="22" width="22" xmlns="http://www.w3.org/2000/svg">
  <path d="m11.00781 3.0003904c-.166308.00989-.331632.1128756-.599609.2734375l-2.9082035 1.7421874-2.898438 1.7363281c-.638198.358215-.551847.1965221-.601562.8828125v1.2578125c0 .059578.03804.1074219.08594.1074219h.914063v.4277344 7.1445313.427734h-.232422c-.424987 0-.767578.378053-.767578.847656v1.152344h13.9999995v-1.152344c0-.469603-.342592-.847656-.767578-.847656h-.232422v-.427734-7.1445313-.4277344h.914062c.0479 0 .08594-.047844.08594-.1074219v-1.2304687c-.0014-.7238546-.01687-.559467-.625-.9238282l-2.874999-1.7226562-2.892578-1.7324218c-.267663-.2096236-.433301-.2930885-.59961-.2832031zm-4.0078125 6.9999996h3v6h-3zm4.9999995 0h3v6h-3z" fill="#e6ddff"/>
</svg>

<svg xmlns="http://www.w3.org/2000/svg" width="22" height="22" version="1.1">
 <defs>
  <style id="current-color-scheme" type="text/css">
   .ColorScheme-Text { color:#E6DDFF; } .ColorScheme-Highlight { color:#4285f4; }
  </style>
 </defs>
 <path style="fill:currentColor" class="ColorScheme-Text" d="m 11.00781,3.0003904 c -0.166308,0.00989 -0.331632,0.1128756 -0.599609,0.2734375 L 7.4999975,5.0160153 4.6015595,6.7523434 c -0.638198,0.358215 -0.551847,0.1965221 -0.601562,0.8828125 v 1.2578125 c 0,0.059578 0.03804,0.1074219 0.08594,0.1074219 h 0.914063 v 0.4277344 7.1445313 0.427734 h -0.232422 c -0.424987,0 -0.767578,0.378053 -0.767578,0.847656 V 19.00039 H 18 V 17.848046 C 18,17.378443 17.657408,17.00039 17.232422,17.00039 H 17 V 16.572656 9.4281247 9.0003903 h 0.914062 c 0.0479,0 0.08594,-0.047844 0.08594,-0.1074219 V 7.6624997 c -0.0014,-0.7238546 -0.01687,-0.559467 -0.625,-0.9238282 L 14.500003,5.0160153 11.607425,3.2835935 C 11.339762,3.0739699 11.174124,2.990505 11.007815,3.0003904 Z M 6.9999975,10.00039 h 3 v 6 h -3 z m 4.9999995,0 h 3 v 6 h -3 z"/>
</svg>
